public/assets/images/cam.svg

<svg width="21" height="18" viewBox="0 0 21 18" fill="none" xmlns="http://www.w3.org/2000/svg">
<path opacity="0.54" fill-rule="evenodd" clip-rule="evenodd" d="M2.65625 2H5.65625L7.65625 0H13.6562L15.6562 2H18.6562C19.7608 2 20.6562 2.89543 20.6562 4V16C20.6562 17.1046 19.7608 18 18.6562 18H2.65625C1.55168 18 0.65625 17.1046 0.65625 16V4C0.65625 2.89543 1.55168 2 2.65625 2ZM10.6562 5C7.89483 5 5.65625 7.23858 5.65625 10C5.65625 12.7614 7.89483 15 10.6562 15C13.4177 15 15.6562 12.7614 15.6562 10C15.6562 7.23858 13.4177 5 10.6562 5ZM13.6562 10C13.6562 8.34315 12.3131 7 10.6562 7C8.9994 7 7.65625 8.34315 7.65625 10C7.65625 11.6569 8.9994 13 10.6562 13C12.3131 13 13.6562 11.6569 13.6562 10Z" fill="#1A1A1A"/>
</svg>

<svg xmlns="http://www.w3.org/2000/svg" width="21" height="18" fill="none"><path fill="#1A1A1A" fill-rule="evenodd" d="M2.656 2h3l2-2h6l2 2h3a2 2 0 0 1 2 2v12a2 2 0 0 1-2 2h-16a2 2 0 0 1-2-2V4a2 2 0 0 1 2-2Zm8 3a5 5 0 1 0 0 10 5 5 0 0 0 0-10Zm3 5a3 3 0 1 0-6 0 3 3 0 0 0 6 0Z" clip-rule="evenodd" opacity=".54"/></svg>
